X: 91
T: Mai bianshi
L: 1/16
M: 2/4
K: Bb
d' f' d' c'b4 [I:setbarnb 1]| 
d' f' d' c'b4 | 
c'2> a2 c'3 d' | 
g2 f gb4 | 
d'2 b c' d'2 d'2 | 
b g b c'd'4 | 
f d f g2< d'2 b | 
c'2> g2f4 | 
b g b c'd'4 | 
f d f g2< d'2 b | 
c'2> g2f4 |]

@@@ Tune index: 8965
